X:14
T:10a. Sands Of Time, The
C:Larry Mallette
R:reel
M:C|
Q:360
K:G
"Single Reel"
B|efgf eB~B2|eBfB gfeA|Adfe df~f2|g2ag fedB|
efgf eB~B2|eBfB gfeA|Adfe df~f2|adgf e3||
c|BEFG BF~F2|BFGA c2B2|BeeB cBA2|BGAF E2E2|
BEFG BF~F2|BFGA c2B2|Befg feB2|BEGF E3|]





